icons/themes/default/box.svg

<svg viewBox="0 0 16 16" fill="none" xmlns="http://www.w3.org/2000/svg">
<path fill-rule="evenodd" clip-rule="evenodd" d="M5.54852 1.5L5.54995 1.5L8.00995 1.5H10.47H10.4714C10.8952 1.50122 11.3102 1.62051 11.67 1.84451C12.0296 2.06844 12.3198 2.38815 12.5079 2.76777L12.5079 2.76785L12.508 2.76809L13.5164 4.80054C13.9121 5.22117 14.07 5.79997 14.07 6.45V11.79C14.07 12.4604 13.902 13.055 13.4785 13.4786C13.055 13.9021 12.4604 14.07 11.79 14.07H4.22995C3.55955 14.07 2.9649 13.9021 2.5414 13.4786C2.11789 13.055 1.94995 12.4604 1.94995 11.79V6.45C1.94995 5.79997 2.10784 5.22116 2.50349 4.80053L3.51189 2.76809L3.51194 2.768C3.70003 2.38828 3.99021 2.06849 4.34993 1.84451C4.70968 1.62051 5.12474 1.50122 5.54852 1.5ZM5.55072 2.5H7.50995V4.17H4.22995C4.12693 4.17 4.02569 4.17397 3.92659 4.18222L4.40785 3.21223L4.40801 3.21191C4.5136 2.99871 4.67652 2.81916 4.87849 2.69341C5.08027 2.56777 5.31304 2.5008 5.55072 2.5ZM3.11785 5.81223C3.08738 5.87365 3.04598 5.92605 2.99716 5.96824C2.96711 6.10248 2.94995 6.26151 2.94995 6.45V11.79C2.94995 12.3063 3.07868 12.6016 3.2485 12.7714C3.41833 12.9413 3.71369 13.07 4.22995 13.07H11.79C12.3062 13.07 12.6016 12.9413 12.7714 12.7714C12.9412 12.6016 13.07 12.3063 13.07 11.79V6.45C13.07 6.26151 13.0528 6.10247 13.0227 5.96823C12.9739 5.92604 12.9325 5.87364 12.9021 5.81223L12.7006 5.40612C12.5231 5.26816 12.2408 5.17 11.79 5.17H8.50995V7.34C8.50995 7.61614 8.28609 7.84 8.00995 7.84C7.73381 7.84 7.50995 7.61614 7.50995 7.34V5.17H4.22995C3.77914 5.17 3.49677 5.26816 3.31935 5.40612L3.11785 5.81223ZM11.79 4.17C11.893 4.17 11.9942 4.17397 12.0933 4.18222L11.6121 3.21223L11.6119 3.21191C11.5063 2.99871 11.3434 2.81916 11.1414 2.69341C10.9396 2.56777 10.7069 2.5008 10.4692 2.5H8.50995V4.17H11.79ZM4.66995 10.85C4.39381 10.85 4.16995 11.0739 4.16995 11.35C4.16995 11.6262 4.39381 11.85 4.66995 11.85H6.44995C6.72609 11.85 6.94995 11.6262 6.94995 11.35C6.94995 11.0739 6.72609 10.85 6.44995 10.85H4.66995Z" fill="currentColor" />
</svg>

<svg xmlns="http://www.w3.org/2000/svg" fill="none" viewBox="0 0 16 16">
  <path fill="currentColor" fill-rule="evenodd" d="M5.549 1.5h4.922a2.28 2.28 0 0 1 2.037 1.268l1.008 2.033c.396.42.554.999.554 1.649v5.34c0 .67-.168 1.265-.591 1.689-.424.423-1.019.591-1.689.591H4.23c-.67 0-1.265-.168-1.689-.591-.423-.424-.591-1.019-.591-1.689V6.45c0-.65.158-1.229.553-1.65l1.009-2.032A2.28 2.28 0 0 1 5.549 1.5Zm.002 1H7.51v1.67H4.23c-.103 0-.204.004-.303.012l.48-.97h.001A1.28 1.28 0 0 1 5.551 2.5ZM3.118 5.812a.498.498 0 0 1-.12.156c-.03.134-.048.294-.048.482v5.34c0 .516.129.812.298.981.17.17.466.299.982.299h7.56c.516 0 .812-.129.981-.299.17-.17.299-.465.299-.981V6.45c0-.188-.017-.348-.047-.482a.497.497 0 0 1-.12-.156l-.202-.406c-.178-.138-.46-.236-.911-.236H8.51v2.17a.5.5 0 0 1-1 0V5.17H4.23c-.45 0-.733.098-.91.236l-.202.406ZM11.79 4.17c.103 0 .204.004.303.012l-.48-.97h-.001a1.28 1.28 0 0 0-1.143-.712H8.51v1.67h3.28Zm-7.12 6.68a.5.5 0 0 0 0 1h1.78a.5.5 0 1 0 0-1H4.67Z" clip-rule="evenodd"/>
</svg>
